X:474
T: WO BIST DU DENN GEWESEN
N: E1732
O: Europa, Mitteleuropa, Deutschland, Hessen, Lahn - Kreis, Dill - Kreis
R: Scherz - Lied
M: 3/8
L: 1/16
K: G
G2 | GAB2c2 | d2B2c2 | d2B2c2 | d2z2
GB | B2A2GB | B2A2GB | d2c2B2 | A2z2

